X:1
T:There But For Fortune
M:4/4
L:1/4
K:G
 z2 B B3/4 A/4| A/2 G3/2- G2| z2 B B3/4 A/4| G4| z2 B B3/4 B/4| c B A3/2 G/2|\
 A E E/2 G3/2| F3 D| B B2 B3/4 A/4| A/2 G3/2- G B| c c c B| A3 z/2 d/2|\
 d2 d d| d G2 F| A A2E/2-G/2| F4|
